X: 1071
T: Hisarbûselik Aranağme (Yürüksemâî)
C: ?
O: Turkey
F: http://compmusic.upf.edu/node/140
N: hisarbuselik--aranagme--azeriyuruksemai--1--
N: makam= hisarbuselik
N: form= aranagme
N: usul= azeriyuruksemai = 6/8
M: 6/8
L: 1/16
K: C _1/4B   
Q: 1/4=192
%%MIDI tuningsystem comma53
G3c c2=B2 c4  | c3e e2^d2 e4  | a3^g f2f3e^d2  | e12  | \
w:  ARANAĞME  |   |   |   | 
f3e d2e3dc2  | 
w:   | 
d3c =B2c3BA2  | c3=B A2B3A^G2  | A3=B c2d2 .e4  | \
w:   |   |   | 
f3e d2e3dc2  | 
w:   | 
d3c =B2c3BA2  | c3=B A2B3A^G2  | A12  | \
w:   |   |   | 
z4 c2=B2 c4  | G3c c2=B2 c4  | 
w:   |   | 
=B3c c2B2 c4  | G3c c2=B2 c4  | z4 d2f2 e2d2  | d12  | \
w:   |   |   |   | 
z4 e2^d2 e4  | c12  | 
w:   |   | 
z4 d2c2 =B4  | d2c2 =B2A2 B2^G2  | A12  | \
w:   |   |   | 
d2e2 d2c2 =B2A2  | z4 c2=B2 c4  | 
w:   |   | 
G3c c2=B2 c4  | =B3c c2B2 c4  | G3c c2=B2 c4  | \
w:   |   |   | 
z4 d2f2 e2d2  | d12  | 
w:   |   | 
z4 e2^d2 e4  | c12  | z4 d2c2 =B4  | d2c2 =B2A2 B2^G2  | A12  | A12  | |


